report_00007_2020-12-11T15:55:29.892Z/interactive/comparison/line/2_vs_3.svg

<svg width="640" height="500" xmlns="http://www.w3.org/2000/svg" xmlns:xlink="http://www.w3.org/1999/xlink"><path fill="#fff" d="M0 0h640v500H0z"/><defs><path id="d" stroke-width=".222" stroke="currentColor" d="M-1-1h2v2h-2z"/><path id="b" stroke-width=".222" stroke="currentColor" d="M0-1.33l-1.33 2h2.66z"/><path id="f" stroke-width=".222" stroke="currentColor" d="M0 1.33L1.265.411.782-1.067l-1.564-.009-.483 1.487z"/><use xlink:href="#b" id="c" stroke="currentColor" transform="rotate(180)"/><use xlink:href="#d" id="e" stroke="currentColor" transform="rotate(45)"/><circle id="a" stroke-width=".222" stroke="currentColor" cx="0" cy="0" r="1"/></defs><g fill="none" color="#000" stroke="currentColor"><path stroke="#000" d="M70.5 376h9m535.5 0h-9"/><text transform="translate(62.2 379.9)" stroke="none" fill="#000" font-family="Arial" font-size="12" text-anchor="end"><tspan>11000</tspan></text></g><g fill="none" color="#000" stroke="currentColor"><path stroke="#000" d="M70.5 305.9h9m535.5 0h-9"/><text transform="translate(62.2 309.8)" stroke="none" fill="#000" font-family="Arial" font-size="12" text-anchor="end"><tspan>11100</tspan></text></g><g fill="none" color="#000" stroke="currentColor"><path stroke="#000" d="M70.5 235.7h9m535.5 0h-9"/><text transform="translate(62.2 239.6)" stroke="none" fill="#000" font-family="Arial" font-size="12" text-anchor="end"><tspan>11200</tspan></text></g><g fill="none" color="#000" stroke="currentColor"><path stroke="#000" d="M70.5 165.6h9m535.5 0h-9"/><text transform="translate(62.2 169.5)" stroke="none" fill="#000" font-family="Arial" font-size="12" text-anchor="end"><tspan>11300</tspan></text></g><g fill="none" color="#000" stroke="currentColor"><path stroke="#000" d="M70.5 95.5h9m535.5 0h-9"/><text transform="translate(62.2 99.4)" stroke="none" fill="#000" font-family="Arial" font-size="12" text-anchor="end"><tspan>11400</tspan></text></g><g fill="none" color="#000" stroke="currentColor"><path stroke="#000" d="M70.5 25.4h9m535.5 0h-9"/><text transform="translate(62.2 29.3)" stroke="none" fill="#000" font-family="Arial" font-size="12" text-anchor="end"><tspan>11500</tspan></text></g><g fill="none" color="#000" stroke="currentColor"><path stroke="#000" d="M70.5 428v-9m0-400.9v9"/><text transform="translate(70.5 449.9)" stroke="none" fill="#000" font-family="Arial" font-size="12" text-anchor="middle"><tspan>0</tspan></text></g><g fill="none" color="#000" stroke="currentColor"><path stroke="#000" d="M125.5 428v-9m0-400.9v9"/><text transform="translate(125.5 449.9)" stroke="none" fill="#000" font-family="Arial" font-size="12" text-anchor="middle"><tspan>10</tspan></text></g><g fill="none" color="#000" stroke="currentColor"><path stroke="#000" d="M180.5 428v-9m0-400.9v9"/><text transform="translate(180.5 449.9)" stroke="none" fill="#000" font-family="Arial" font-size="12" text-anchor="middle"><tspan>20</tspan></text></g><g fill="none" color="#000" stroke="currentColor"><path stroke="#000" d="M235.5 428v-9m0-400.9v9"/><text transform="translate(235.5 449.9)" stroke="none" fill="#000" font-family="Arial" font-size="12" text-anchor="middle"><tspan>30</tspan></text></g><g fill="none" color="#000" stroke="currentColor"><path stroke="#000" d="M290.5 428v-9m0-400.9v9"/><text transform="translate(290.5 449.9)" stroke="none" fill="#000" font-family="Arial" font-size="12" text-anchor="middle"><tspan>40</tspan></text></g><g fill="none" color="#000" stroke="currentColor"><path stroke="#000" d="M345.5 428v-9m0-400.9v9"/><text transform="translate(345.5 449.9)" stroke="none" fill="#000" font-family="Arial" font-size="12" text-anchor="middle"><tspan>50</tspan></text></g><g fill="none" color="#000" stroke="currentColor"><path stroke="#000" d="M400.5 428v-9m0-400.9v9"/><text transform="translate(400.5 449.9)" stroke="none" fill="#000" font-family="Arial" font-size="12" text-anchor="middle"><tspan>60</tspan></text></g><g fill="none" color="#000" stroke="currentColor"><path stroke="#000" d="M455.5 428v-9m0-400.9v9"/><text transform="translate(455.5 449.9)" stroke="none" fill="#000" font-family="Arial" font-size="12" text-anchor="middle"><tspan>70</tspan></text></g><g fill="none" color="#000" stroke="currentColor"><path stroke="#000" d="M510.5 428v-9m0-400.9v9"/><text transform="translate(510.5 449.9)" stroke="none" fill="#000" font-family="Arial" font-size="12" text-anchor="middle"><tspan>80</tspan></text></g><g fill="none" color="#000" stroke="currentColor"><path stroke="#000" d="M565.5 428v-9m0-400.9v9"/><text transform="translate(565.5 449.9)" stroke="none" fill="#000" font-family="Arial" font-size="12" text-anchor="middle"><tspan>90</tspan></text></g><path stroke="#000" d="M70.5 18.1V428H615V18.1H70.5z" fill="none" color="#000"/><text transform="translate(283.9 467.9)" stroke="none" fill="#000" font-family="Arial" font-size="12" text-anchor="end" color="#000"><tspan>pages+cached</tspan></text><path stroke="#9400D3" d="M292.2 464h42.2M70.5 26L76 397.7l5.5-34.2 5.5 35.4h5.5l5.5-23.1 5.5 41.2 5.5-26 5.5 22.1 5.5-15.7 5.5 16.6 5.5-9.6 5.5-11.7 5.5-18.3 5.5 21.3 5.5-1.6 5.5 21.1 5.5-13 5.5.3 5.5 8.5 5.5-15.2 5.5-3.6 5.5 5.9 5.5 8 5.5-15 5.5 2.2 5.5 19.5 5.5-19.5 5.5 5.2 5.5 12.4 5.5-20.3L241 414l5.5 2.7 5.5-3.1 5.5.5 5.5-19.5 5.5 9.9 5.5-46.9 5.5 45.1 5.5-1.7 5.5-9.3 5.5 5.4 5.5-6.3 5.5-7.6 5.5 24.1 5.5-17.7 5.5 24.4 5.5-2.4 5.5-2.4 5.5-15.9 5.5 17.1 5.5-35.7 5.5 39.2 5.5 2.2 5.5-27.1 5.5 23.7 5.5.4 5.5-7.3 5.5-12.3 5.5 9.3 5.5 11 5.5-4.5 5.5 1.8 5.5-3.8 5.5-17.9 5.5 9.2 5.5 14.2 5.5-13.9 5.5 13 5.5 5.5 5.5 2.7 5.5-6.4 5.5-26.4 5.5 8.4 5.5 5.8 5.5 6.4 5.5-9 5.5 7.4 5.5 3.9 5.5-14 5.5-4.1 5.5 1.1 5.5 7.2 5.5 16.8h5.5l5.5-6.5 5.5-1.7 5.5 3.1 5.5-1 5.5-1.9 5.5-14.1 5.5 21.3 5.5-7.8 5.5 3.9 5.5-19.9L593 411l5.5.1 5.5-4.2 5.5-6.5 5.5-6.3" fill="none" color="#000"/><text transform="translate(283.9 485.9)" stroke="none" fill="#000" font-family="Arial" font-size="12" text-anchor="end" color="#000"><tspan>pages+cached+nointeractive</tspan></text><path stroke="#009E73" d="M292.2 482h42.2M70.5 391l5.5 22.3 5.5-32.6 5.5 14.2 5.5-3.1 5.5 17 5.5-4.3 5.5 5.9 5.5-2 5.5-37.6 5.5 24.1 5.5-1.7 5.5 11.4 5.5-10.1 5.5 14 5.5 2.6 5.5-20.9 5.5 23.6 5.5-1.1 5.5-13.9 5.5 12.8h5.5l5.5 1.5 5.5-12.9 5.5 15.5 5.5-1.9 5.5-.7 5.5 4.8 5.5-7.4 5.5.2 5.5-20.1 5.5 16.9 5.5 3.8 5.5-7.7 5.5 6 5.5 3.5 5.5-8 5.5 1.6 5.5-14.2 5.5 14.7 5.5 2.5 5.5-18.1 5.5 21.5 5.5-22.5 5.5 22 5.5-3.9h5.5l5.5-.5 5.5-.1 5.5 1.3 5.5-.2 5.5-.6 5.5-2.6 5.5 12.5 5.5-11.9 5.5 1.4 5.5-14.5 5.5 1.8 5.5 16.8 5.5-.5 5.5-4 5.5-13 5.5 14.6 5.5 10.9 5.5-3.1 5.5-3.1 5.5-5.9 5.5 7.7 5.5-16.6 5.5 7.1 5.5-16.3 5.5 2 5.5 16.7 5.5-7.3 5.5 16.6 5.5-9.4 5.5 1.8 5.5 2.3 5.5 2 5.5-.4 5.5-9.2 5.5 10.3 5.5-19.5 5.5 13.3 5.5 4.5L538 383l5.5 24.7 5.5-7.9 5.5 10.2 5.5-6.2 5.5 9 5.5-8.5 5.5 4.7 5.5 1.5 5.5 2.8L593 396l5.5 20.7 5.5-6.3 5.5-.7 5.5-3.9" fill="none" color="#000"/><text transform="translate(558.5 467.9)" stroke="none" fill="#000" font-family="Arial" font-size="12" text-anchor="end" color="#000"><tspan>score p10=3785</tspan></text><path stroke="#56B4E9" d="M566.8 464H609" fill="none" color="#000"/><g><text transform="translate(558.5 485.9)" stroke="none" fill="#000" font-family="Arial" font-size="12" text-anchor="end" color="#000"><tspan>score median=7300</tspan></text><path stroke="#E69F00" d="M566.8 482H609" fill="none" color="#000"/></g><g fill="none" color="#000" stroke="currentColor"><path stroke="#000" d="M70.5 18.1V428H615V18.1H70.5z"/></g></svg>

<?xml version="1.0" encoding="utf-8"  standalone="no"?>
<svg 
 width="640" height="500"
 viewBox="0 0 640 500"
 xmlns="http://www.w3.org/2000/svg"
 xmlns:xlink="http://www.w3.org/1999/xlink"
>

<title>Gnuplot</title>
<desc>Produced by GNUPLOT 5.4 patchlevel 0 </desc>

<g id="gnuplot_canvas">

<rect x="0" y="0" width="640" height="500" fill="#ffffff"/>
<defs>

	<circle id='gpDot' r='0.5' stroke-width='0.5' stroke='currentColor'/>
	<path id='gpPt0' stroke-width='0.222' stroke='currentColor' d='M-1,0 h2 M0,-1 v2'/>
	<path id='gpPt1' stroke-width='0.222' stroke='currentColor' d='M-1,-1 L1,1 M1,-1 L-1,1'/>
	<path id='gpPt2' stroke-width='0.222' stroke='currentColor' d='M-1,0 L1,0 M0,-1 L0,1 M-1,-1 L1,1 M-1,1 L1,-1'/>
	<rect id='gpPt3' stroke-width='0.222' stroke='currentColor' x='-1' y='-1' width='2' height='2'/>
	<rect id='gpPt4' stroke-width='0.222' stroke='currentColor' fill='currentColor' x='-1' y='-1' width='2' height='2'/>
	<circle id='gpPt5' stroke-width='0.222' stroke='currentColor' cx='0' cy='0' r='1'/>
	<use xlink:href='#gpPt5' id='gpPt6' fill='currentColor' stroke='none'/>
	<path id='gpPt7' stroke-width='0.222' stroke='currentColor' d='M0,-1.33 L-1.33,0.67 L1.33,0.67 z'/>
	<use xlink:href='#gpPt7' id='gpPt8' fill='currentColor' stroke='none'/>
	<use xlink:href='#gpPt7' id='gpPt9' stroke='currentColor' transform='rotate(180)'/>
	<use xlink:href='#gpPt9' id='gpPt10' fill='currentColor' stroke='none'/>
	<use xlink:href='#gpPt3' id='gpPt11' stroke='currentColor' transform='rotate(45)'/>
	<use xlink:href='#gpPt11' id='gpPt12' fill='currentColor' stroke='none'/>
	<path id='gpPt13' stroke-width='0.222' stroke='currentColor' d='M0,1.330 L1.265,0.411 L0.782,-1.067 L-0.782,-1.076 L-1.265,0.411 z'/>
	<use xlink:href='#gpPt13' id='gpPt14' fill='currentColor' stroke='none'/>
	<filter id='textbox' filterUnits='objectBoundingBox' x='0' y='0' height='1' width='1'>
	  <feFlood flood-color='#FFFFFF' flood-opacity='1' result='bgnd'/>
	  <feComposite in='SourceGraphic' in2='bgnd' operator='atop'/>
	</filter>
	<filter id='greybox' filterUnits='objectBoundingBox' x='0' y='0' height='1' width='1'>
	  <feFlood flood-color='lightgrey' flood-opacity='1' result='grey'/>
	  <feComposite in='SourceGraphic' in2='grey' operator='atop'/>
	</filter>
</defs>
<g fill="none" color="#FFFFFF" stroke="black" stroke-width="1.00" stroke-linecap="butt" stroke-linejoin="miter">
</g>
<g fill="none" color="black" stroke="currentColor" stroke-width="1.00" stroke-linecap="butt" stroke-linejoin="miter">
	<path stroke='black'  d='M70.5,376.0 L79.5,376.0 M615.0,376.0 L606.0,376.0  '/>	<g transform="translate(62.2,379.9)" stroke="none" fill="black" font-family="Arial" font-size="12.00"  text-anchor="end">
		<text><tspan font-family="Arial" > 11000</tspan></text>
	</g>
</g>
<g fill="none" color="black" stroke="currentColor" stroke-width="1.00" stroke-linecap="butt" stroke-linejoin="miter">
	<path stroke='black'  d='M70.5,305.9 L79.5,305.9 M615.0,305.9 L606.0,305.9  '/>	<g transform="translate(62.2,309.8)" stroke="none" fill="black" font-family="Arial" font-size="12.00"  text-anchor="end">
		<text><tspan font-family="Arial" > 11100</tspan></text>
	</g>
</g>
<g fill="none" color="black" stroke="currentColor" stroke-width="1.00" stroke-linecap="butt" stroke-linejoin="miter">
	<path stroke='black'  d='M70.5,235.7 L79.5,235.7 M615.0,235.7 L606.0,235.7  '/>	<g transform="translate(62.2,239.6)" stroke="none" fill="black" font-family="Arial" font-size="12.00"  text-anchor="end">
		<text><tspan font-family="Arial" > 11200</tspan></text>
	</g>
</g>
<g fill="none" color="black" stroke="currentColor" stroke-width="1.00" stroke-linecap="butt" stroke-linejoin="miter">
	<path stroke='black'  d='M70.5,165.6 L79.5,165.6 M615.0,165.6 L606.0,165.6  '/>	<g transform="translate(62.2,169.5)" stroke="none" fill="black" font-family="Arial" font-size="12.00"  text-anchor="end">
		<text><tspan font-family="Arial" > 11300</tspan></text>
	</g>
</g>
<g fill="none" color="black" stroke="currentColor" stroke-width="1.00" stroke-linecap="butt" stroke-linejoin="miter">
	<path stroke='black'  d='M70.5,95.5 L79.5,95.5 M615.0,95.5 L606.0,95.5  '/>	<g transform="translate(62.2,99.4)" stroke="none" fill="black" font-family="Arial" font-size="12.00"  text-anchor="end">
		<text><tspan font-family="Arial" > 11400</tspan></text>
	</g>
</g>
<g fill="none" color="black" stroke="currentColor" stroke-width="1.00" stroke-linecap="butt" stroke-linejoin="miter">
	<path stroke='black'  d='M70.5,25.4 L79.5,25.4 M615.0,25.4 L606.0,25.4  '/>	<g transform="translate(62.2,29.3)" stroke="none" fill="black" font-family="Arial" font-size="12.00"  text-anchor="end">
		<text><tspan font-family="Arial" > 11500</tspan></text>
	</g>
</g>
<g fill="none" color="black" stroke="currentColor" stroke-width="1.00" stroke-linecap="butt" stroke-linejoin="miter">
	<path stroke='black'  d='M70.5,428.0 L70.5,419.0 M70.5,18.1 L70.5,27.1  '/>	<g transform="translate(70.5,449.9)" stroke="none" fill="black" font-family="Arial" font-size="12.00"  text-anchor="middle">
		<text><tspan font-family="Arial" > 0</tspan></text>
	</g>
</g>
<g fill="none" color="black" stroke="currentColor" stroke-width="1.00" stroke-linecap="butt" stroke-linejoin="miter">
	<path stroke='black'  d='M125.5,428.0 L125.5,419.0 M125.5,18.1 L125.5,27.1  '/>	<g transform="translate(125.5,449.9)" stroke="none" fill="black" font-family="Arial" font-size="12.00"  text-anchor="middle">
		<text><tspan font-family="Arial" > 10</tspan></text>
	</g>
</g>
<g fill="none" color="black" stroke="currentColor" stroke-width="1.00" stroke-linecap="butt" stroke-linejoin="miter">
	<path stroke='black'  d='M180.5,428.0 L180.5,419.0 M180.5,18.1 L180.5,27.1  '/>	<g transform="translate(180.5,449.9)" stroke="none" fill="black" font-family="Arial" font-size="12.00"  text-anchor="middle">
		<text><tspan font-family="Arial" > 20</tspan></text>
	</g>
</g>
<g fill="none" color="black" stroke="currentColor" stroke-width="1.00" stroke-linecap="butt" stroke-linejoin="miter">
	<path stroke='black'  d='M235.5,428.0 L235.5,419.0 M235.5,18.1 L235.5,27.1  '/>	<g transform="translate(235.5,449.9)" stroke="none" fill="black" font-family="Arial" font-size="12.00"  text-anchor="middle">
		<text><tspan font-family="Arial" > 30</tspan></text>
	</g>
</g>
<g fill="none" color="black" stroke="currentColor" stroke-width="1.00" stroke-linecap="butt" stroke-linejoin="miter">
	<path stroke='black'  d='M290.5,428.0 L290.5,419.0 M290.5,18.1 L290.5,27.1  '/>	<g transform="translate(290.5,449.9)" stroke="none" fill="black" font-family="Arial" font-size="12.00"  text-anchor="middle">
		<text><tspan font-family="Arial" > 40</tspan></text>
	</g>
</g>
<g fill="none" color="black" stroke="currentColor" stroke-width="1.00" stroke-linecap="butt" stroke-linejoin="miter">
	<path stroke='black'  d='M345.5,428.0 L345.5,419.0 M345.5,18.1 L345.5,27.1  '/>	<g transform="translate(345.5,449.9)" stroke="none" fill="black" font-family="Arial" font-size="12.00"  text-anchor="middle">
		<text><tspan font-family="Arial" > 50</tspan></text>
	</g>
</g>
<g fill="none" color="black" stroke="currentColor" stroke-width="1.00" stroke-linecap="butt" stroke-linejoin="miter">
	<path stroke='black'  d='M400.5,428.0 L400.5,419.0 M400.5,18.1 L400.5,27.1  '/>	<g transform="translate(400.5,449.9)" stroke="none" fill="black" font-family="Arial" font-size="12.00"  text-anchor="middle">
		<text><tspan font-family="Arial" > 60</tspan></text>
	</g>
</g>
<g fill="none" color="black" stroke="currentColor" stroke-width="1.00" stroke-linecap="butt" stroke-linejoin="miter">
	<path stroke='black'  d='M455.5,428.0 L455.5,419.0 M455.5,18.1 L455.5,27.1  '/>	<g transform="translate(455.5,449.9)" stroke="none" fill="black" font-family="Arial" font-size="12.00"  text-anchor="middle">
		<text><tspan font-family="Arial" > 70</tspan></text>
	</g>
</g>
<g fill="none" color="black" stroke="currentColor" stroke-width="1.00" stroke-linecap="butt" stroke-linejoin="miter">
	<path stroke='black'  d='M510.5,428.0 L510.5,419.0 M510.5,18.1 L510.5,27.1  '/>	<g transform="translate(510.5,449.9)" stroke="none" fill="black" font-family="Arial" font-size="12.00"  text-anchor="middle">
		<text><tspan font-family="Arial" > 80</tspan></text>
	</g>
</g>
<g fill="none" color="black" stroke="currentColor" stroke-width="1.00" stroke-linecap="butt" stroke-linejoin="miter">
	<path stroke='black'  d='M565.5,428.0 L565.5,419.0 M565.5,18.1 L565.5,27.1  '/>	<g transform="translate(565.5,449.9)" stroke="none" fill="black" font-family="Arial" font-size="12.00"  text-anchor="middle">
		<text><tspan font-family="Arial" > 90</tspan></text>
	</g>
</g>
<g fill="none" color="black" stroke="currentColor" stroke-width="1.00" stroke-linecap="butt" stroke-linejoin="miter">
</g>
<g fill="none" color="black" stroke="currentColor" stroke-width="1.00" stroke-linecap="butt" stroke-linejoin="miter">
	<path stroke='black'  d='M70.5,18.1 L70.5,428.0 L615.0,428.0 L615.0,18.1 L70.5,18.1 Z  '/></g>
<g fill="none" color="black" stroke="currentColor" stroke-width="1.00" stroke-linecap="butt" stroke-linejoin="miter">
</g>
	<g id="gnuplot_plot_1" ><title>pages+cached</title>
<g fill="none" color="black" stroke="currentColor" stroke-width="1.00" stroke-linecap="butt" stroke-linejoin="miter">
	<g transform="translate(283.9,467.9)" stroke="none" fill="black" font-family="Arial" font-size="12.00"  text-anchor="end">
		<text><tspan font-family="Arial" >pages+cached</tspan></text>
	</g>
</g>
<g fill="none" color="black" stroke="currentColor" stroke-width="1.00" stroke-linecap="butt" stroke-linejoin="miter">
	<path stroke='rgb(148,   0, 211)'  d='M292.2,464.0 L334.4,464.0 M70.5,26.0 L76.0,397.7 L81.5,363.5 L87.0,398.9 L92.5,398.9 L98.0,375.8
		L103.5,417.0 L109.0,391.0 L114.5,413.1 L120.0,397.4 L125.5,414.0 L131.0,404.4 L136.5,392.7 L142.0,374.4
		L147.5,395.7 L153.0,394.1 L158.5,415.2 L164.0,402.2 L169.5,402.5 L175.0,411.0 L180.5,395.8 L186.0,392.2
		L191.5,398.1 L197.0,406.1 L202.5,391.1 L208.0,393.3 L213.5,412.8 L219.0,393.3 L224.5,398.5 L230.0,410.9
		L235.5,390.6 L241.0,414.0 L246.5,416.7 L252.0,413.6 L257.5,414.1 L263.0,394.6 L268.5,404.5 L274.0,357.6
		L279.5,402.7 L285.0,401.0 L290.5,391.7 L296.0,397.1 L301.5,390.8 L307.0,383.2 L312.5,407.3 L318.0,389.6
		L323.5,414.0 L329.0,411.6 L334.5,409.2 L340.0,393.3 L345.5,410.4 L351.0,374.7 L356.5,413.9 L362.0,416.1
		L367.5,389.0 L373.0,412.7 L378.5,413.1 L384.0,405.8 L389.5,393.5 L395.0,402.8 L400.5,413.8 L406.0,409.3
		L411.5,411.1 L417.0,407.3 L422.5,389.4 L428.0,398.6 L433.5,412.8 L439.0,398.9 L444.5,411.9 L450.0,417.4
		L455.5,420.1 L461.0,413.7 L466.5,387.3 L472.0,395.7 L477.5,401.5 L483.0,407.9 L488.5,398.9 L494.0,406.3
		L499.5,410.2 L505.0,396.2 L510.5,392.1 L516.0,393.2 L521.5,400.4 L527.0,417.2 L532.5,417.2 L538.0,410.7
		L543.5,409.0 L549.0,412.1 L554.5,411.1 L560.0,409.2 L565.5,395.1 L571.0,416.4 L576.5,408.6 L582.0,412.5
		L587.5,392.6 L593.0,411.0 L598.5,411.1 L604.0,406.9 L609.5,400.4 L615.0,394.1  '/></g>
	</g>
	<g id="gnuplot_plot_2" ><title>pages+cached+nointeractive</title>
<g fill="none" color="black" stroke="currentColor" stroke-width="1.00" stroke-linecap="butt" stroke-linejoin="miter">
	<g transform="translate(283.9,485.9)" stroke="none" fill="black" font-family="Arial" font-size="12.00"  text-anchor="end">
		<text><tspan font-family="Arial" >pages+cached+nointeractive</tspan></text>
	</g>
</g>
<g fill="none" color="black" stroke="currentColor" stroke-width="1.00" stroke-linecap="butt" stroke-linejoin="miter">
	<path stroke='rgb(  0, 158, 115)'  d='M292.2,482.0 L334.4,482.0 M70.5,391.0 L76.0,413.3 L81.5,380.7 L87.0,394.9 L92.5,391.8 L98.0,408.8
		L103.5,404.5 L109.0,410.4 L114.5,408.4 L120.0,370.8 L125.5,394.9 L131.0,393.2 L136.5,404.6 L142.0,394.5
		L147.5,408.5 L153.0,411.1 L158.5,390.2 L164.0,413.8 L169.5,412.7 L175.0,398.8 L180.5,411.6 L186.0,411.6
		L191.5,413.1 L197.0,400.2 L202.5,415.7 L208.0,413.8 L213.5,413.1 L219.0,417.9 L224.5,410.5 L230.0,410.7
		L235.5,390.6 L241.0,407.5 L246.5,411.3 L252.0,403.6 L257.5,409.6 L263.0,413.1 L268.5,405.1 L274.0,406.7
		L279.5,392.5 L285.0,407.2 L290.5,409.7 L296.0,391.6 L301.5,413.1 L307.0,390.6 L312.5,412.6 L318.0,408.7
		L323.5,408.7 L329.0,408.2 L334.5,408.1 L340.0,409.4 L345.5,409.2 L351.0,408.6 L356.5,406.0 L362.0,418.5
		L367.5,406.6 L373.0,408.0 L378.5,393.5 L384.0,395.3 L389.5,412.1 L395.0,411.6 L400.5,407.6 L406.0,394.6
		L411.5,409.2 L417.0,420.1 L422.5,417.0 L428.0,413.9 L433.5,408.0 L439.0,415.7 L444.5,399.1 L450.0,406.2
		L455.5,389.9 L461.0,391.9 L466.5,408.6 L472.0,401.3 L477.5,417.9 L483.0,408.5 L488.5,410.3 L494.0,412.6
		L499.5,414.6 L505.0,414.2 L510.5,405.0 L516.0,415.3 L521.5,395.8 L527.0,409.1 L532.5,413.6 L538.0,383.0
		L543.5,407.7 L549.0,399.8 L554.5,410.0 L560.0,403.8 L565.5,412.8 L571.0,404.3 L576.5,409.0 L582.0,410.5
		L587.5,413.3 L593.0,396.0 L598.5,416.7 L604.0,410.4 L609.5,409.7 L615.0,405.8  '/></g>
	</g>
	<g id="gnuplot_plot_3" ><title>score p10=3785</title>
<g fill="none" color="black" stroke="currentColor" stroke-width="1.00" stroke-linecap="butt" stroke-linejoin="miter">
	<g transform="translate(558.5,467.9)" stroke="none" fill="black" font-family="Arial" font-size="12.00"  text-anchor="end">
		<text><tspan font-family="Arial" >score p10=3785</tspan></text>
	</g>
</g>
<g fill="none" color="black" stroke="currentColor" stroke-width="1.00" stroke-linecap="butt" stroke-linejoin="miter">
	<path stroke='rgb( 86, 180, 233)'  d='M566.8,464.0 L609.0,464.0  '/></g>
	</g>
	<g id="gnuplot_plot_4" ><title>score median=7300</title>
<g fill="none" color="black" stroke="currentColor" stroke-width="1.00" stroke-linecap="butt" stroke-linejoin="miter">
	<g transform="translate(558.5,485.9)" stroke="none" fill="black" font-family="Arial" font-size="12.00"  text-anchor="end">
		<text><tspan font-family="Arial" >score median=7300</tspan></text>
	</g>
</g>
<g fill="none" color="black" stroke="currentColor" stroke-width="1.00" stroke-linecap="butt" stroke-linejoin="miter">
	<path stroke='rgb(230, 159,   0)'  d='M566.8,482.0 L609.0,482.0  '/></g>
	</g>
<g fill="none" color="#FFFFFF" stroke="rgb(230, 159,   0)" stroke-width="2.00" stroke-linecap="butt" stroke-linejoin="miter">
</g>
<g fill="none" color="black" stroke="currentColor" stroke-width="2.00" stroke-linecap="butt" stroke-linejoin="miter">
</g>
<g fill="none" color="black" stroke="black" stroke-width="1.00" stroke-linecap="butt" stroke-linejoin="miter">
</g>
<g fill="none" color="black" stroke="currentColor" stroke-width="1.00" stroke-linecap="butt" stroke-linejoin="miter">
	<path stroke='black'  d='M70.5,18.1 L70.5,428.0 L615.0,428.0 L615.0,18.1 L70.5,18.1 Z  '/></g>
<g fill="none" color="black" stroke="currentColor" stroke-width="1.00" stroke-linecap="butt" stroke-linejoin="miter">
</g>
</g>
</svg>
